src/actions/symbolic/budgie-rotation-lock-button-symbolic.svg

<svg width="16" height="16" version="1.1" viewBox="0 0 16 16" xmlns="http://www.w3.org/2000/svg">
 <path d="m7.5 0 1.918 1.918c0.17292-0.20064 0.38748-0.37295 0.62305-0.51562 0.017223-0.37574 0.1171-0.73249 0.28125-1.0508-0.74374-0.22783-1.5341-0.35156-2.3555-0.35156zm-1.4336 0.83398c-0.25 0-0.49922 0.098828-0.69922 0.29883l-4.2676 4.2676c-0.4 0.4-0.4 1.0004 0 1.4004l8 8c0.40003 0.40003 1.0004 0.40003 1.4004 0l4.2676-4.2676c0.40003-0.40003 0.40003-1.0004 0-1.4004l-2.1328-2.1328h-1.4023l2.8672 2.8672-4.2656 4.2656-8-8 4.2656-4.2656 2.9004 2.9004v-1.4023l-2.2324-2.2324c-0.2-0.2-0.45117-0.29883-0.70117-0.29883zm9.6582 5.1641c-0.19747 0.33592-0.48935 0.61076-0.83789 0.78711 0.03282 0.1807 0.06057 0.36356 0.08008 0.54883h1c-0.044325-0.458-0.12719-0.90394-0.24219-1.3359zm-15.691 2.668c0.33333 4.1333 3.7336 7.334 7.9336 7.334h0.4668l-2.5332-2.5332-0.93359 0.86719c-2.2-1-3.7333-3.1346-4-5.668z" fill="#363636"/>
 <path d="m12.5 0c-0.831 0-1.5 0.669-1.5 1.5v0.5c-0.554 0-1 0.446-1 1v2c0 0.554 0.446 1 1 1h3c0.554 0 1-0.446 1-1v-2c0-0.554-0.446-1-1-1v-0.5c0-0.831-0.669-1.5-1.5-1.5zm0 1c0.277 0 0.5 0.223 0.5 0.5v0.5h-1v-0.5c0-0.277 0.223-0.5 0.5-0.5zm-1.5 2h3v2h-3z" color="#000000" fill="#363636" stroke-linecap="round" stroke-linejoin="round" stroke-width="2" style="-inkscape-stroke:none"/>
</svg>

<svg xmlns="http://www.w3.org/2000/svg" width="16" height="16">
    <path fill="#050505" fill-opacity=".7" d="m7.5 0 1.918 1.918c.173-.2.387-.373.623-.516.017-.375.117-.732.281-1.05A8.027 8.027 0 0 0 7.967 0zM6.066.834c-.25 0-.499.099-.699.299L1.1 5.4c-.4.4-.4 1 0 1.4l8 8c.4.4 1 .4 1.4 0l4.268-4.267c.4-.4.4-1 0-1.4L12.635 7h-1.403L14.1 9.867l-4.266 4.266-8-8L6.1 1.867l2.9 2.9V3.366L6.768 1.133a.988.988 0 0 0-.701-.299zm9.659 5.164c-.198.336-.49.61-.838.787.033.18.06.364.08.549h1a8.296 8.296 0 0 0-.242-1.336zM.034 8.666C.367 12.8 3.767 16 7.967 16h.467l-2.533-2.533-.934.867c-2.2-1-3.733-3.135-4-5.668z"/>
    <path fill="#050505" fill-opacity=".7" d="M12.5 0c-.831 0-1.5.669-1.5 1.5V2c-.554 0-1 .446-1 1v2c0 .554.446 1 1 1h3c.554 0 1-.446 1-1V3c0-.554-.446-1-1-1v-.5c0-.831-.669-1.5-1.5-1.5zm0 1c.277 0 .5.223.5.5V2h-1v-.5c0-.277.223-.5.5-.5zM11 3h3v2h-3z" color="#000" style="-inkscape-stroke:none"/>
</svg>
